usr/share/icons/biglinux-icons-material/24/actions/svn-commit.svg

<svg xmlns="http://www.w3.org/2000/svg" viewBox="0 0 24 24">
  <defs id="defs3051">
    <style type="text/css" id="current-color-scheme">
      .ColorScheme-Text {
        color:#dedede;
      }
      </style>
  </defs>
 <path style="fill:currentColor;fill-opacity:1;stroke:none" 
     d="M 11.5 4 C 10.84576 4 10.297797 4.41808 10.091797 5 L 6 5 L 5 5 L 5 6 L 5 17.091797 C 4.41808 17.297797 4 17.84576 4 18.5 C 4 19.331 4.669 20 5.5 20 C 6.331 20 7 19.331 7 18.5 C 7 17.84576 6.58192 17.297797 6 17.091797 L 6 6 L 10.091797 6 C 10.242137 6.4247 10.5753 6.7578631 11 6.9082031 L 11 13 L 11 14 L 12 14 L 12.091797 14 C 12.297797 14.58192 12.84576 15 13.5 15 C 14.331 15 15 14.331 15 13.5 C 15 12.669 14.331 12 13.5 12 C 12.84576 12 12.297797 12.41808 12.091797 13 L 12 13 L 12 6.9082031 C 12.58192 6.7022031 13 6.15424 13 5.5 C 13 4.669 12.331 4 11.5 4 z M 11.5 5 C 11.777 5 12 5.223 12 5.5 C 12 5.777 11.777 6 11.5 6 C 11.223 6 11 5.777 11 5.5 C 11 5.223 11.223 5 11.5 5 z M 13.5 13 C 13.777 13 14 13.223 14 13.5 C 14 13.777 13.777 14 13.5 14 C 13.223 14 13 13.777 13 13.5 C 13 13.223 13.223 13 13.5 13 z M 17.5 14 L 17.292969 14.207031 L 14 17.5 L 14.707031 18.207031 L 17 15.914062 L 17 20.207031 L 18 20.207031 L 18 15.914062 L 20.292969 18.207031 L 21 17.5 L 17.707031 14.207031 L 17.5 14 z M 5.5 18 C 5.777 18 6 18.223 6 18.5 C 6 18.777 5.777 19 5.5 19 C 5.223 19 5 18.777 5 18.5 C 5 18.223 5.223 18 5.5 18 z "
     class="ColorScheme-Text"
     />
</svg>

<svg xmlns="http://www.w3.org/2000/svg" viewBox="0 0 24 24"><path d="M11.5 4c-.654 0-1.202.418-1.408 1H5v12.092A1.497 1.497 0 0 0 5.5 20a1.497 1.497 0 0 0 .5-2.908V6h4.092c.15.425.483.758.908.908V14h1.092A1.497 1.497 0 0 0 15 13.5a1.497 1.497 0 0 0-2.908-.5H12V6.908A1.497 1.497 0 0 0 11.5 4zm0 1a.499.499 0 1 1 0 1 .499.499 0 1 1 0-1zm2 8a.499.499 0 1 1 0 1 .499.499 0 1 1 0-1zm4 1-.207.207L14 17.5l.707.707L17 15.914v4.293h1v-4.293l2.293 2.293L21 17.5l-3.293-3.293L17.5 14zm-12 4a.499.499 0 1 1 0 1 .499.499 0 1 1 0-1z" style="fill:currentColor;fill-opacity:1;stroke:none;color:#dedede"/></svg>
